X: 1
T: the Sicilian (JC.082)
R: Jig
S: John Clare, Poet, Helpston. (1793-1864)
N: aka. JC.082
O: England
A: Northamptonshire
Z: vmp.P. Headford
M: 6/8
L: 1/8
F: http://www.village-music-project.org.uk/abc/clare_J.abc	 20100826 010612 UT
K: D
|: "D"f2f "A7"efg | "D"afd "A7"c2A | "D"FAd "G"GBd | "Em"efg "A7"{f}e3 \
|  "D"f2f "A7"efg | "D"afd "A7"c2A | "D"FAd "G"Bgf | "A7"edc "D"d3 :|
|: "D"afd "A7"ecA | "D"afd "A7"ecA | "D"afd "G"Bgf | "E7"efd "A7"cBA \
|  "D"afd "A7"ecA | "D"afd "A7"ecA | "D"afd "G"Bgf | "A7"edc "D"d3 :|
